X: 10091
M: C
L: 1/8
K: C
c2cc c2Bc | d4 z2G2 |\
d2dd d2cd | e4 z2G2 |\
dc |\
e2cc G2EE | G4 z2G2 |\
e2cc G2EE | G4 z2G2 |\


